libs/ui/packages/crypto-icons/src/svg/MDA.svg

<svg width="24" height="24" viewBox="0 0 24 24" fill="none">
<path d="M15.4972 5.994C16.4093 6.969 16.875 8.193 16.875 9.624C16.875 11.0767 16.4093 12.3015 15.4965 13.2765C14.7668 14.0437 13.8953 14.4998 12.882 14.6663V15.5167H14.949V16.4505H12.861V16.9485H14.949V17.8193H12.882V19.5H11.118V17.82H9.0705V16.9485H11.1382V16.4505H9.07125V15.5167H11.1187V14.6453C10.125 14.4795 9.2535 14.0227 8.52375 13.2555C7.5915 12.2805 7.125 11.0558 7.125 9.60375C7.125 8.13075 7.57125 6.90675 8.5035 5.952C9.435 4.977 10.5915 4.5 12.0105 4.5C13.4092 4.5 14.5642 4.977 15.4972 5.994ZM13.5915 11.5335C13.9762 11.0355 14.1795 10.392 14.1795 9.60375C14.1795 8.8365 13.977 8.19375 13.551 7.695C13.146 7.17675 12.6188 6.92775 12.0105 6.92775C11.382 6.92775 10.8555 7.17675 10.4497 7.67475C10.0432 8.17275 9.84075 8.7945 9.84075 9.5835C9.84075 10.392 10.044 11.0355 10.4497 11.5335C10.8555 12.0315 11.382 12.2805 12.0098 12.2805C12.6593 12.2805 13.206 12.0315 13.5915 11.5335Z" fill="#01A64F"/>
</svg>

<svg width="24" height="24" viewBox="0 0 24 24" fill="none"><path fill="#01a64f" d="M15.497 5.994c.912.975 1.378 2.199 1.378 3.63 0 1.453-.466 2.678-1.379 3.653a4.53 4.53 0 0 1-2.614 1.39v.85h2.067v.934h-2.088v.497h2.088v.871h-2.067V19.5h-1.764v-1.68H9.07v-.872h2.068v-.497H9.071v-.934h2.048v-.872a4.53 4.53 0 0 1-2.595-1.39c-.932-.975-1.399-2.2-1.399-3.651 0-1.473.446-2.697 1.379-3.652.931-.975 2.088-1.452 3.507-1.452 1.398 0 2.553.477 3.486 1.494m-1.905 5.54c.384-.498.588-1.142.588-1.93 0-.768-.203-1.41-.629-1.909-.405-.518-.932-.767-1.54-.767-.629 0-1.155.249-1.561.747-.407.498-.61 1.12-.61 1.909 0 .808.204 1.452.61 1.95.406.497.932.746 1.56.746.65 0 1.196-.248 1.582-.746"/></svg>
